X:1
T:In tribulationibus
T:In tribulationibus
T:Stefano PASINO
T:(c) Wim Looyestijn - 2018. May be freely copied for non-commercial use.
T:(c) Wim Looyestijn - 2018. May be freely copied for non-commercial use.
C:Stefano Pasino
C:fl. 1675
Z:(c) Wim Looyestijn - 2018. May be freely copied for non-commercial use.
%%score 1 2 3
L:1/8
Q:1/4=240
M:4/4
K:C
V:1 treble-8 nm="MusicXML Part"
V:2 treble-8 nm="MusicXML Part"
V:3 treble-8 nm="MusicXML Part"
V:1
 z2 A2 A3 B | c2 A2 A2 GG | F4 E4 |: z2 cd ed/c/ Be | A2 A2 A2 GG | c2 AA B2 B2 | c2 c2 B2 e2 | %7
w: In tri- bu-|la- ti- o- ni- bus|no- stris|ex- au- dis- * * * ti|nos et no- mi- ni|tu- o di- ca- tum|tem- plum nump- tu-|
 AE A4 ^G2 | AB cd e2 B2 | c2 cc BBBB | A4 G4 | F2 A2 E2 G2 | z c BA BB AG | A2 c2 B4 | %14
w: o- * * *|rum _ _ _ _ in|quo in e- ter- num, in e-|ter- num|de- can- tan- tur|lau- * * * * * *|* des tu-|
 Ae dc dd cB | c2 A2 A2 ^G2 | A2 cc B4 | A4 E4 | A2 A2 A3 B!fine! | c2 A2 A2 GG | F4 E4 :| %21
w: o, lau- * * * * * *|* des tu- *|o, lau- des tu-|o, tu|o. In tri- bu-|la- ti- o- ni- bus|no- stris|
V:2
 z8 | z2 A2 A3 B | c2 A2 A2 GG |: F4 E4 | z2 cd ed/c/ Be | A2 A2 A2 GG | c2 AA B2 B2 | %7
w: |In tri- bu-|la- ti- o- ni- bus|no- stris|ex- au- dis- * * * ti|nos et no- mi- ni|tu- o di- ca- tum|
 c2 c2 B2 e2 | AE A4 ^G2 | AB cd e2 B2 | c2 cc BBBB | A4 G4 | F2 A2 E2 G2 | z c BA BB AG | %14
w: temp- tum nump- tu-|o- * * *|rum _ _ _ _ in|quo in e- ter- num, in e-|ter- num|de- can- tan- tur|lau- * * * * * *|
 A2 c2 B4 | Ae dc dd cB | c2 A2 A2 ^G2 | A2 cc B4 | A4 E4 | A2 A2 A3 B | c2 A2 A2 GG :| %21
w: * des tu-|o, lau- * * * * * *|* des tu- *|o, lau- des tu-|o, tu|o. In tri- bu-|la- ti- o- ni- bus|
V:3
 z8 | z8 | z2 A2 A3 B |: c2 A2 A2 GG | F4 E4 | z2 cd ed/c/ Be | A2 A2 A2 GG | c2 AA B2 B2 | %8
w: ||In tri- bu-|la- ti- o- ni- bus|no- stris|ex- au- dis- * * * ti|nos et no- mi- ni|tu- o di- ca- tum|
 c2 c2 B2 e2 | AE A4 ^G2 | AB cd e2 B2 | c2 cc BBBB | A4 G4 | F2 A2 E2 G2 | z c BA BB AG | %15
w: temp- tum nump- tu-|o- * * *|rum _ _ _ _ in|quo in e- ter- num, in e-|ter- num|de- can- tan- tur|lau- * * * * * *|
 A2 c2 B4 | Ae dc dd cB | c2 A2 A2 ^G2 | A2 cc B4 | A4 E4 | A2 A2 A3 B :| %21
w: * des tu-|o, lau- * * * * * *|* des tu- *|o, lau- des tu-|o, tu|o. In tri- bu-|

